X:182
T:Singleton's Reel
B:Terry "Cuz" Teahan "Sliabh Luachra on Parade" 1980
Z:Patrick Cavanagh
M:4/4
L:1/8
R:Reel
K:G
| G2BG AcBA | BEEE BEGE | DEGB AcBA | GEED EGGE :| 
| G2Bd egge | dBBB dBAB | G2Bd egge | dBAG EGG2 :|| 

